X: 1327
T: An Paistin Fionn
R: hornpipe
M: 4/4
K: Edorian
|:(3Bcd|e>gfe d>efd|g>bag f2gf|e>fed BAGA|B>dcA B2 (3Bcd|
e>gfe d>efd|g>bag f2gf|e>fed BAFB|E2 ED E2:|
|:EF|G>ABc d>BBd|c>AAc d>BBA|G>ABc dBBA|B>eed e2EF|
G>ABc d>BBA|B>eef g2gf|e>fed B>AFB|E2 ED E2:|

